X:881
T:Teviot Bridge
R:Jig
C:Alexander Givan
B:The Athole Collection
M:6/8
L:1/8
K:A
f|ecA E2A|F2A E2A|EFE E2c|d2c B2f|ecA E2A|F2A E2c|d2f ecA|B3A3:|
f|ecA Ace|fgf fga|ecA AcA|BGE E2f|ecA Ace|agf edc|d2f ecA|B3 A2f|
ecA Ace|fgf fga|ecA ABA|BGE E2f|ece fdf|agf edc|dfa ecA|B3 A2||

